X:1
T: Scottish Reform
C:
R:Jig
Q:180
K:D
M:6/8
L:1/16
FG|:A2B2A2 A2F2A2|d4d2 d2c2B2|A2B2A2 A2G2F2|E2G2F2 E2F2G2|
A2B2A2 A2F2A2|d4d2 d2e2f2|g2f2g2 e2a2g2|1f2d2d2 d4FG:|2f2d2d2 d4fg|
|:a2f2d2 d2e2f2|g2b2a2 g2f2e2|a2f2d2 g4f2|
|1e2c2A2 A4A2|a2f2d2 d2e2f2|g2b2a2 g2f2e2|g2f2g2 e2a2g2|f2d2d2 d2f2g2:|
|2e2c2A2 A2B2|c2d2f2 d2e2c2|A2B2d2 B2A2F2|D2G2F2 G2E2A2|G2F2D2 D2D4||
